Dominus_Funeral/22/mimes/text-x-python.svg

<svg xmlns="http://www.w3.org/2000/svg" width="24" height="24" viewBox="0 0 6.35 6.35"><path class="ColorScheme-Text" d="M3.14.26a4 4 0 0 0-.68.06c-.3.06-.45.13-.53.23-.08.09-.1.22-.1.41v.45h1.34c.06 0 .1.04.1.1v.18a.1.1 0 0 1-.1.11h-2c-.38 0-.7.22-.8.65-.14.54-.14.85 0 1.41a1 1 0 0 0 .24.48c.1.1.24.17.43.17h.39v-.55c0-.54.46-1 1.01-1H3.9c.34 0 .61-.28.61-.62V.96c0-.33-.28-.58-.63-.64-.24-.04-.5-.06-.74-.06zM2.36.6c.15 0 .27.12.27.28 0 .15-.12.27-.27.27a.27.27 0 0 1-.28-.27c0-.16.13-.28.28-.28zM4.9 1.8v.54c0 .55-.47 1.01-1.01 1.01H2.44c-.33 0-.61.3-.61.63v1.37c0 .17.06.29.18.4.12.1.28.18.47.23.44.13.85.15 1.39 0 .17-.05.34-.13.46-.23a.5.5 0 0 0 .18-.4v-.44H3.17a.1.1 0 0 1-.1-.1v-.2c0-.05.04-.1.1-.1h2.18c.19 0 .3-.05.39-.16.1-.11.17-.28.24-.5.14-.43.14-.83 0-1.4-.05-.2-.13-.36-.22-.48a.49.49 0 0 0-.4-.17zM4 5.17a.27.27 0 1 1-.27.27c0-.15.12-.27.27-.27z" color="#090d11" fill="#1a1a1a"/></svg>

<?xml version="1.0" encoding="UTF-8" standalone="no"?>
<svg
   xmlns:dc="http://purl.org/dc/elements/1.1/"
   xmlns:cc="http://creativecommons.org/ns#"
   xmlns:rdf="http://www.w3.org/1999/02/22-rdf-syntax-ns#"
   xmlns:svg="http://www.w3.org/2000/svg"
   xmlns="http://www.w3.org/2000/svg"
   xmlns:sodipodi="http://sodipodi.sourceforge.net/DTD/sodipodi-0.dtd"
   xmlns:inkscape="http://www.inkscape.org/namespaces/inkscape"
   width="24"
   height="24"
   viewBox="0 0 6.35 6.35"
   version="1.1"
   id="svg4"
   sodipodi:docname="text-x-python.svg"
   inkscape:version="0.92.4 (5da689c313, 2019-01-14)">
  <metadata
     id="metadata10">
    <rdf:RDF>
      <cc:Work
         rdf:about="">
        <dc:format>image/svg+xml</dc:format>
        <dc:type
           rdf:resource="http://purl.org/dc/dcmitype/StillImage" />
        <dc:title></dc:title>
      </cc:Work>
    </rdf:RDF>
  </metadata>
  <defs
     id="defs8" />
  <sodipodi:namedview
     pagecolor="#ffffff"
     bordercolor="#666666"
     borderopacity="1"
     objecttolerance="10"
     gridtolerance="10"
     guidetolerance="10"
     inkscape:pageopacity="0"
     inkscape:pageshadow="2"
     inkscape:window-width="1112"
     inkscape:window-height="480"
     id="namedview6"
     showgrid="false"
     inkscape:zoom="9.8333333"
     inkscape:cx="1.0677966"
     inkscape:cy="12"
     inkscape:window-x="0"
     inkscape:window-y="25"
     inkscape:window-maximized="0"
     inkscape:current-layer="svg4" />
  <path
     class="ColorScheme-Text"
     d="M 3.14,0.26 A 4,4 0 0 0 2.46,0.32 C 2.16,0.38 2.01,0.45 1.93,0.55 1.85,0.64 1.83,0.77 1.83,0.96 v 0.45 h 1.34 c 0.06,0 0.1,0.04 0.1,0.1 V 1.69 A 0.1,0.1 0 0 1 3.17,1.8 h -2 c -0.38,0 -0.7,0.22 -0.8,0.65 -0.14,0.54 -0.14,0.85 0,1.41 a 1,1 0 0 0 0.24,0.48 c 0.1,0.1 0.24,0.17 0.43,0.17 H 1.43 V 3.96 c 0,-0.54 0.46,-1 1.01,-1 H 3.9 c 0.34,0 0.61,-0.28 0.61,-0.62 V 0.96 C 4.51,0.63 4.23,0.38 3.88,0.32 3.64,0.28 3.38,0.26 3.14,0.26 Z M 2.36,0.6 c 0.15,0 0.27,0.12 0.27,0.28 0,0.15 -0.12,0.27 -0.27,0.27 A 0.27,0.27 0 0 1 2.08,0.88 C 2.08,0.72 2.21,0.6 2.36,0.6 Z M 4.9,1.8 V 2.34 C 4.9,2.89 4.43,3.35 3.89,3.35 H 2.44 c -0.33,0 -0.61,0.3 -0.61,0.63 v 1.37 c 0,0.17 0.06,0.29 0.18,0.4 0.12,0.1 0.28,0.18 0.47,0.23 0.44,0.13 0.85,0.15 1.39,0 C 4.04,5.93 4.21,5.85 4.33,5.75 A 0.5,0.5 0 0 0 4.51,5.35 V 4.91 H 3.17 a 0.1,0.1 0 0 1 -0.1,-0.1 v -0.2 c 0,-0.05 0.04,-0.1 0.1,-0.1 H 5.35 C 5.54,4.51 5.65,4.46 5.74,4.35 5.84,4.24 5.91,4.07 5.98,3.85 6.12,3.42 6.12,3.02 5.98,2.45 5.93,2.25 5.85,2.09 5.76,1.97 A 0.49,0.49 0 0 0 5.36,1.8 Z M 4,5.17 A 0.27,0.27 0 1 1 3.73,5.44 C 3.73,5.29 3.85,5.17 4,5.17 Z"
     id="path2"
     inkscape:connector-curvature="0"
     style="color:#090d11;fill:#1a1a1a" />
</svg>
